X:67
T:Little Pink Winkie
M:6/8
L:1/8
C:© Paul Gitlitz 2000
R:Jig
B:Giblitz Fancy
N: Celdae's affectionate reference to her kitty's nether region.
K:C
"C"[c2e2] c BcB|"F"A3 "C"G3|"F"FEF "(Dm)"DEF|"G"GAG FED|!
"Am"[c2e2] c BcB|"F"A3 "C"G3|"F"FEF "(Dm)"DEF|1"G"GED "C"C3:|2"G"GED "C"C2B,|!
|:"C"CDE "Dm"DEF|"Am"CAB cBA|"Dm"Fde "F"fed|"C"cBA "G"GAB|!
"C"CDE "Dm"DEF|"Am"CAB cBA|"Dm"FdB "C"cGE|"G7"FDB, "C"C3:|]
